components/icon/svg/24/ticket_komfort-check-in.svg

<?xml version="1.0" encoding="UTF-8"?>
<svg width="24px" height="24px" viewBox="0 0 24 24" version="1.1" xmlns="http://www.w3.org/2000/svg" xmlns:xlink="http://www.w3.org/1999/xlink">
    <!-- Generator: Sketch 64 (93537) - https://sketch.com -->
    <title>ic-db_ticket_komfort-check-in_24</title>
    <desc>Created with Sketch.</desc>
    <g id="Symbols:Icon" stroke="none" stroke-width="1" fill="none" fill-rule="evenodd">
        <g id="24dp-Icon/Ticket/Komfort-Check-In" fill="#282D37">
            <path d="M13,21 C13.75,21 14.5625,20.9062 15.3125,20.6875 C15.75,20.5625 16.0313,20.1875 16.0313,19.7188 C16.0313,19.1875 15.5938,18.7188 15.0625,18.7188 C14.8125,18.7188 13.9375,19 13,19 C9.125,19 6,15.875 6,12 C6,8.125 9.125,5 13,5 C14,5 14.875,5.2812 15.0625,5.2812 C15.5938,5.2812 16.0313,4.8125 16.0313,4.2812 C16.0313,3.8125 15.75,3.4375 15.3125,3.3125 C14.5625,3.0938 13.75,3 13,3 C8,3 4,7.0312 4,12 C4,16.9688 8,21 13,21 Z M13,15 C13.25,15 13.4688,14.9688 13.6875,14.7188 L20.6875,7.6875 C20.875,7.5 20.9688,7.25 20.9688,7 C20.9688,6.4375 20.5313,6 20,6 C19.7188,6 19.4688,6.0938 19.2813,6.2812 L13,12.625 L10.7188,10.3438 C10.5313,10.1562 10.25,10.0312 9.9688,10.0312 C9.4375,10.0312 9,10.5 9,11.0312 C9,11.2812 9.0938,11.5312 9.3125,11.75 L12.2813,14.7188 C12.4688,14.9062 12.7188,15 13,15 Z" id="🎨-Color"></path>
        </g>
    </g>
</svg>

<svg width="24" height="24" xmlns="http://www.w3.org/2000/svg"><path d="M13 21c.75 0 1.563-.094 2.313-.313a.976.976 0 00.718-.968c0-.532-.437-1-.968-1-.25 0-1.126.281-2.063.281-3.875 0-7-3.125-7-7s3.125-7 7-7c1 0 1.875.281 2.063.281.53 0 .968-.468.968-1a.976.976 0 00-.718-.968A8.415 8.415 0 0013 3c-5 0-9 4.031-9 9s4 9 9 9zm0-6c.25 0 .469-.031.688-.281l7-7.031a.97.97 0 00.28-.688A.98.98 0 0020 6a.99.99 0 00-.719.281L13 12.625l-2.281-2.281a1.091 1.091 0 00-.75-.313c-.531 0-.969.469-.969 1 0 .25.094.5.313.719l2.968 2.969A.99.99 0 0013 15z" fill="#282D37" fill-rule="evenodd"/></svg>
